X: 30
T: No_131_The_Shifting_Clouds.krn
N: Derived from No_131_The_Shifting_Clouds.krn
%%abc-version 2.0
%%abcx-abcm2ps-target-version 5.9.1 (29 Sep 2008)
%%abc-creator hum2abc beta
%%abcx-conversion-date 2019/03/15 08:29:13
%%humdrum-veritas 247951329
%%humdrum-veritas-data 2623725812
%%linebreak <none>
%%barnumbers 0
L: 1/8
M: 3/4
K: A clef=bass
[K:clef=bass][M:3/4]E2E2C/B,3/ | 
E2E4 ||  
[M:2/4]CE CB, | 
A,A,A,2 | 
A,3A, | 
A,A, A,C | 
C4 | 
CE (CB,) | 
A,A,A,2- ||  
[M:4/4]A,6CA, | 
F,A,-A,4F,A, ||  
[M:2/4]F,E, E,E, ||  
[M:3/4]E,6 ||  
[M:2/4]E,E, E,C, ||  
[M:3/4]E,E,-E,4 ||  
[M:2/4]C,E, C,B,, | 
A,,A,,A,,2- | 
A,,4 |]  



